!!!OTL: SCHLAF, KINDEIN SCHLAF, DER VATER HUET'T DIE SCHAF'
!!!ARE: Europa, Mitteleuropa, Deutschland
!!!SCT: Z0162
!!!YEM: Copyright 1995, estate of Helmut Schaffrath.
**kern
*ICvox
*Ivox
*M2/4
*k[]
*C:
=1
{4e
16d
16c
16d
16e
=2
4c
8r}
{8c
=3
8e
8e
16d
16c
16d
16e
=4
4c
8r}
{8G
=5
8c
8c
8d
8d
=6
8.e
16d
8c}
{8G
=7
8d
8d
8e
8e
=8
8.f
16e
8d
8r}
=9
{4g
8e
8d
=10
4c
4r}
==
!!!AGN: Kinder -, Wiegen - Lied
!!!ONB: ESAC (Essen Associative Code) Database: ZUCCAL
!!!AMT: simple duple
!!!AIN: vox
!!!EED: Helmut Schaffrath
!!!EEV: 1.0
*-
